X: 33315
T: Quare Wild Night, The
R: polka
M: 2/4
K: Dmajor
|:A>A AG|FA d2|e>e ec|Ac e2|
A>A AG|FA d2|ecB/c/A|d2 d2:|
|:ff/f/ fa|gf e2|c>B AB|cd e2|
ff/f/ fa|gf e2|a>b ag|ec d2:|

